svg/u1f5b2.svg

<svg viewBox="0 0 128 128" xmlns="http://www.w3.org/2000/svg">
  <linearGradient id="SVGID_1_" gradientTransform="matrix(-1 0 0 1 128 0)" gradientUnits="userSpaceOnUse" x1="63.8794" x2="63.8794" y1="123.767" y2="123.7996">
    <stop offset="0" stop-color="#757575"/>
    <stop offset="1" stop-color="#424242"/>
  </linearGradient>
  <path d="M63.04,123.77c0.71,0.04,1.45,0.04,2.17,0H63.04z" fill="url(#SVGID_1_)"/>
  <g>
    <path d="M49.16,11.87c4.58,0.45,25.1,0.45,29.69,0c21.04-2.07,40.76,23.97,40.72,42.52 C119.47,92.36,88.28,124,65.03,124c-0.34,0-0.69-0.03-1.03-0.04c-0.34,0.01-0.69,0.04-1.03,0.04C39.72,124,8.53,92.36,8.44,54.4 C8.4,35.85,28.12,9.81,49.16,11.87z" fill="#424242"/>
    <path d="M80.91,16.28c3.15,0.92,6.07,2.89,8.3,5.27c0.54,0.58,3.33,6.46,3.99,9.22 c0.66,2.76,1.96-0.36,1.68-2.93c-0.41-3.79-1.73-7.46-4.25-10.32c-5.34-6.07-12.68-6.73-20.27-7.12 c-8.64-0.45-14.81,0.03-23.35,1.37c-9.15,1.43-14.65,8.58-16.33,16.74c-1.95,9.45,3.5,16.93,10.1,21.12 c2.62,1.66,7.85,4.03,9.09,3.52c1.9-0.77-0.36-1.6-0.92-1.9c-4.36-2.37-7.39-3.83-9.54-7.14c-2.24-3.44-8.47-19.15,4.6-25.68 C53.62,13.62,79.49,15.87,80.91,16.28z" fill="#757575"/>
    <ellipse cx="64" cy="32.18" rx="29.26" ry="22.22" fill="#212121"/>
    <path d="M82.6,75.42c9.38,10.7,10.38,15.33,12.53,15.91c2.44,0.66,3.88-0.14,6.01-2.88 c3.82-4.91,9-13.33,9.74-21.12c0.64-6.69-0.85-9.35-3.97-15.3c-0.98-1.86-2.65-3.96-4.69-3.45C101.34,48.8,82.6,75.42,82.6,75.42z" fill="#212121"/>
    <path d="M45.28,75.51c-9.38,10.7-10.44,15.24-12.59,15.83c-2.44,0.66-3.88-0.14-6.01-2.88 c-3.82-4.91-9-13.33-9.74-21.12c-0.64-6.69,0.85-9.35,3.97-15.3c0.98-1.86,2.65-3.96,4.69-3.45C26.48,48.8,45.28,75.51,45.28,75.51 z" fill="#212121"/>
    <g>
      <g>
        <path d="M36.27,87.23l10.65-13.86c1.08-1.41,0.92-3.4-0.36-4.64C33.27,55.85,29.59,43.61,28.6,37.15 c-0.43-2.8-3.69-4.1-6-2.46c-3.63,2.58-7.55,8.02-6.92,19.44C16.51,69.38,26,81.92,30.91,87.43 C32.36,89.07,34.94,88.97,36.27,87.23z" fill="#9E9E9E"/>
        <path d="M27,36.73c0.61-2.02,1.41-0.77,1.6,0.42c1,6.46,4.67,18.67,17.9,31.52 c-3.28-1.34-7.9-3.4-12.36-10.05C26.38,47.05,26.37,38.81,27,36.73z" fill="#BDBDBD"/>
        <path d="M21.25,70.25c2.55,4.37,5.68,9.34,8.66,12.58c0.41,0.45,3.04,2.79,5.07,0.24 c0.83-1.04,6.9-11.02,10.35-13.92c2.09-1.76,3.09,2.53,1.58,4.22c-0.01,0.01-10.65,13.86-10.65,13.86 c-1.33,1.74-3.91,1.83-5.36,0.2c-4.89-5.5-14.35-18-15.23-33.2C15.76,54.34,18.39,65.34,21.25,70.25z" fill="#757575"/>
      </g>
      <g>
        <path d="M91.67,87.23L81.02,73.37c-1.08-1.41-0.92-3.4,0.36-4.64c13.29-12.88,16.97-25.12,17.96-31.59 c0.43-2.8,3.69-4.1,6-2.46c3.63,2.58,7.55,8.02,6.92,19.44c-0.84,15.24-10.33,27.78-15.23,33.29 C95.58,89.07,93.01,88.97,91.67,87.23z" fill="#757575"/>
        <path d="M100.94,36.73c-0.61-2.02-1.41-0.77-1.6,0.42c-1,6.46-4.67,18.67-17.9,31.52 c3.28-1.34,7.9-3.4,12.36-10.05C101.56,47.05,101.57,38.81,100.94,36.73z" fill="#9E9E9E"/>
        <path d="M106.69,70.25c-2.55,4.37-5.68,9.34-8.66,12.58c-0.41,0.45-3.04,2.79-5.07,0.24 c-0.83-1.04-6.75-11.21-10.35-13.92c-2.36-1.77-3.2,2.53-1.58,4.22c0.01,0.01,10.65,13.86,10.65,13.86 c1.33,1.74,3.91,1.83,5.36,0.2c4.89-5.5,14.35-18,15.23-33.2C112.18,54.34,109.55,65.34,106.69,70.25z" fill="#616161"/>
      </g>
    </g>
    <path d="M64,4c14.04,0,25.43,11.38,25.43,25.43c0,1.36-0.11,2.7-0.32,4c-4.34,8.79-13.95,14.9-25.11,14.9 s-20.77-6.11-25.11-14.9c-0.21-1.3-0.32-2.64-0.32-4C38.57,15.38,49.96,4,64,4z" fill="#E94539"/>
    <path d="M58.4,23.55c-1.82,2.1-4.19,3.91-6.95,4.27c-8.84,1.14-7.34-9.35-3.47-13.8 c2.96-3.4,9.11-6.46,12.35-1.71C62.85,16.01,61.04,20.49,58.4,23.55z" fill="#E57373"/>
  </g>
</svg>

<svg viewBox="0 0 128 128" xmlns="http://www.w3.org/2000/svg">
  <defs>
    <linearGradient id="SVGID_1_" gradientTransform="matrix(-1 0 0 1 0 0)" gradientUnits="userSpaceOnUse" x1="-64.1206" x2="-64.1206" y1="123.767" y2="123.7996">
      <stop offset="0" stop-color="#757575"/>
      <stop offset="1" stop-color="#424242"/>
    </linearGradient>
  </defs>
  <path d="M63.04,123.77 C63.75,123.81 64.49,123.81 65.21,123.77 L63.04,123.77 Z" fill="url(#SVGID_1_)"/>
  <path d="M49.16,11.87 C53.74,12.32 74.26,12.32 78.85,11.87 C99.89,9.8 119.61,35.84 119.57,54.39 C119.47,92.36 88.28,124 65.03,124 C64.69,124 64.34,123.97 64,123.96 C63.66,123.97 63.31,124 62.97,124 C39.72,124 8.53,92.36 8.44,54.4 C8.4,35.85 28.12,9.81 49.16,11.87 Z" fill="#424242"/>
  <path d="M80.91,16.28 C84.06,17.2 86.98,19.17 89.21,21.55 C89.75,22.13 92.54,28.01 93.2,30.77 C93.86,33.53 95.16,30.41 94.88,27.84 C94.47,24.05 93.15,20.38 90.63,17.52 C85.29,11.45 77.95,10.79 70.36,10.4 C61.72,9.95 55.55,10.43 47.01,11.77 C37.86,13.2 32.36,20.35 30.68,28.51 C28.73,37.96 34.18,45.44 40.78,49.63 C43.4,51.29 48.63,53.66 49.87,53.15 C51.77,52.38 49.51,51.55 48.95,51.25 C44.59,48.88 41.56,47.42 39.41,44.11 C37.17,40.67 30.94,24.96 44.01,18.43 C53.62,13.62 79.49,15.87 80.91,16.28 Z" fill="#757575"/>
  <path d="M93.26,32.18 A29.26 22.22 0 1 1 34.74,32.18 A29.26 22.22 0 1 1 93.26,32.18 Z" fill="#212121"/>
  <path d="M82.6,75.42 C91.98,86.12 92.98,90.75 95.13,91.33 C97.57,91.99 99.01,91.19 101.14,88.45 C104.96,83.54 110.14,75.12 110.88,67.33 C111.52,60.64 110.03,57.98 106.91,52.03 C105.93,50.17 104.26,48.07 102.22,48.58 C101.34,48.8 82.6,75.42 82.6,75.42 Z" fill="#212121"/>
  <path d="M45.28,75.51 C35.9,86.21 34.84,90.75 32.69,91.34 C30.25,92 28.81,91.2 26.68,88.46 C22.86,83.55 17.68,75.13 16.94,67.34 C16.3,60.65 17.79,57.99 20.91,52.04 C21.89,50.18 23.56,48.08 25.6,48.59 C26.48,48.8 45.28,75.51 45.28,75.51 Z" fill="#212121"/>
  <path d="M36.27,87.23 L46.92,73.37 C48,71.96 47.84,69.97 46.56,68.73 C33.27,55.85 29.59,43.61 28.6,37.15 C28.17,34.35 24.91,33.05 22.6,34.69 C18.97,37.27 15.05,42.71 15.68,54.13 C16.51,69.38 26,81.92 30.91,87.43 C32.36,89.07 34.94,88.97 36.27,87.23 Z" fill="#9E9E9E"/>
  <path d="M27,36.73 C27.61,34.71 28.41,35.96 28.6,37.15 C29.6,43.61 33.27,55.82 46.5,68.67 C43.22,67.33 38.6,65.27 34.14,58.62 C26.38,47.05 26.37,38.81 27,36.73 Z" fill="#BDBDBD"/>
  <path d="M21.25,70.25 C23.8,74.62 26.93,79.59 29.91,82.83 C30.32,83.28 32.95,85.62 34.98,83.07 C35.81,82.03 41.88,72.05 45.33,69.15 C47.42,67.39 48.42,71.68 46.91,73.37 C46.9,73.38 36.26,87.23 36.26,87.23 C34.93,88.97 32.35,89.06 30.9,87.43 C26.01,81.93 16.55,69.43 15.67,54.23 C15.76,54.34 18.39,65.34 21.25,70.25 Z" fill="#757575"/>
  <path d="M91.67,87.23 L81.02,73.37 C79.94,71.96 80.1,69.97 81.38,68.73 C94.67,55.85 98.35,43.61 99.34,37.14 C99.77,34.34 103.03,33.04 105.34,34.68 C108.97,37.26 112.89,42.7 112.26,54.12 C111.42,69.36 101.93,81.9 97.03,87.41 C95.58,89.07 93.01,88.97 91.67,87.23 Z" fill="#757575"/>
  <path d="M100.94,36.73 C100.33,34.71 99.53,35.96 99.34,37.15 C98.34,43.61 94.67,55.82 81.44,68.67 C84.72,67.33 89.34,65.27 93.8,58.62 C101.56,47.05 101.57,38.81 100.94,36.73 Z" fill="#9E9E9E"/>
  <path d="M106.69,70.25 C104.14,74.62 101.01,79.59 98.03,82.83 C97.62,83.28 94.99,85.62 92.96,83.07 C92.13,82.03 86.21,71.86 82.61,69.15 C80.25,67.38 79.41,71.68 81.03,73.37 C81.04,73.38 91.68,87.23 91.68,87.23 C93.01,88.97 95.59,89.06 97.04,87.43 C101.93,81.93 111.39,69.43 112.27,54.23 C112.18,54.34 109.55,65.34 106.69,70.25 Z" fill="#616161"/>
  <path d="M64,4 C78.04,4 89.43,15.38 89.43,29.43 C89.43,30.79 89.32,32.13 89.11,33.43 C84.77,42.22 75.16,48.33 64,48.33 C52.84,48.33 43.23,42.22 38.89,33.43 C38.68,32.13 38.57,30.79 38.57,29.43 C38.57,15.38 49.96,4 64,4 Z" fill="#E94539"/>
  <path d="M58.4,23.55 C56.58,25.65 54.21,27.46 51.45,27.82 C42.61,28.96 44.11,18.47 47.98,14.02 C50.94,10.62 57.09,7.56 60.33,12.31 C62.85,16.01 61.04,20.49 58.4,23.55 Z" fill="#E57373"/>
</svg>
